X: 2128
Q: "Strathspey."
M: C
L: 1/8
K: G
vD<GG>uE vF>vGuA>uF | G>Bd>B e3uf |\
vg<be>ug vd<gB>ug | vE<AA>uG vF>vEuF>uD |\
vD<GG>uE vF>vGuA>uF | G>Bd>B e3uf |\
vg<be>ug vd<gB>ug | E<AF>D G3 |]
ud |\
(e<g)ug>ue (f<a)ud>uf | ve>vfug>ue d2(c>B) |\
vc>vdue>uc B<dg>uB | E<AA>G F>EF>D |\
(3gbg (3ege d>gB>g | E<AF>D G3 |]


